svg/filled/question.svg

<svg width="24" height="24" viewBox="0 0 24 24" fill="none" xmlns="http://www.w3.org/2000/svg">
<rect x="10.75" y="15.75" width="2.5" height="2.5" fill="black"/>
<path fill-rule="evenodd" clip-rule="evenodd" d="M12 8C10.8048 8 10 9.08576 10 10H8C8 8.19752 9.49569 6 12 6C14.4955 6 16 8.14203 16 10C16 11.5781 14.8917 12.3782 14.2062 12.8732C14.1659 12.9023 14.1271 12.9303 14.09 12.9574C13.3354 13.5088 13 13.8231 13 14.5H11C11 12.7382 12.1612 11.8897 12.9067 11.345L12.91 11.3426C13.7425 10.7343 14 10.5038 14 10C14 9.0498 13.2039 8 12 8Z" fill="black"/>
</svg>

<svg xmlns="http://www.w3.org/2000/svg" viewBox="0 0 24 24" fill="currentColor">
  <path d="M10.75 15.75h2.5v2.5h-2.5z"/>
  <path fill-rule="evenodd" d="M12 8c-1.195 0-2 1.086-2 2H8c0-1.802 1.496-4 4-4 2.495 0 4 2.142 4 4 0 1.578-1.108 2.378-1.794 2.873l-.116.084c-.755.552-1.09.866-1.09 1.543h-2c0-1.762 1.161-2.61 1.907-3.155l.003-.002c.832-.609 1.09-.84 1.09-1.343 0-.95-.796-2-2-2z" clip-rule="evenodd"/>
</svg>
